assets/icons/informations/account_circle_fill.svg

<svg viewBox="0 0 24 24" xmlns="http://www.w3.org/2000/svg">
<path d="M5.85 17.1C6.7 16.45 7.65 15.9373 8.7 15.562C9.75 15.1873 10.85 15 12 15C13.15 15 14.25 15.1873 15.3 15.562C16.35 15.9373 17.3 16.45 18.15 17.1C18.7333 16.4167 19.1877 15.6417 19.513 14.775C19.8377 13.9083 20 12.9833 20 12C20 9.78333 19.221 7.89567 17.663 6.337C16.1043 4.779 14.2167 4 12 4C9.78333 4 7.896 4.779 6.338 6.337C4.77933 7.89567 4 9.78333 4 12C4 12.9833 4.16267 13.9083 4.488 14.775C4.81267 15.6417 5.26667 16.4167 5.85 17.1ZM12 13C11.0167 13 10.1873 12.6627 9.512 11.988C8.83733 11.3127 8.5 10.4833 8.5 9.5C8.5 8.51667 8.83733 7.68733 9.512 7.012C10.1873 6.33733 11.0167 6 12 6C12.9833 6 13.8127 6.33733 14.488 7.012C15.1627 7.68733 15.5 8.51667 15.5 9.5C15.5 10.4833 15.1627 11.3127 14.488 11.988C13.8127 12.6627 12.9833 13 12 13ZM12 22C10.6167 22 9.31667 21.7373 8.1 21.212C6.88333 20.6873 5.825 19.975 4.925 19.075C4.025 18.175 3.31267 17.1167 2.788 15.9C2.26267 14.6833 2 13.3833 2 12C2 10.6167 2.26267 9.31667 2.788 8.1C3.31267 6.88333 4.025 5.825 4.925 4.925C5.825 4.025 6.88333 3.31233 8.1 2.787C9.31667 2.26233 10.6167 2 12 2C13.3833 2 14.6833 2.26233 15.9 2.787C17.1167 3.31233 18.175 4.025 19.075 4.925C19.975 5.825 20.6873 6.88333 21.212 8.1C21.7373 9.31667 22 10.6167 22 12C22 13.3833 21.7373 14.6833 21.212 15.9C20.6873 17.1167 19.975 18.175 19.075 19.075C18.175 19.975 17.1167 20.6873 15.9 21.212C14.6833 21.7373 13.3833 22 12 22Z" fill="inherit"/>
</svg>

<svg viewBox="0 0 24 24" xmlns="http://www.w3.org/2000/svg"><path d="M5.8 17.1A10.4 10.4 0 0 1 12 15a9.7 9.7 0 0 1 6.1 2.1A7.7 7.7 0 0 0 20 12c0-2.2-.8-4.1-2.3-5.7A7.7 7.7 0 0 0 12 4c-2.2 0-4.1.8-5.7 2.3A7.7 7.7 0 0 0 4 12a7.8 7.8 0 0 0 1.8 5.1ZM12 13c-1 0-1.8-.3-2.5-1s-1-1.5-1-2.5.3-1.8 1-2.5S11 6 12 6s1.8.3 2.5 1 1 1.5 1 2.5-.3 1.8-1 2.5-1.5 1-2.5 1Zm0 9a9.7 9.7 0 0 1-7-3A10 10 0 0 1 2.7 8.2 10 10 0 0 1 12 2a9.7 9.7 0 0 1 7 3 10 10 0 0 1 2.2 10.9A10 10 0 0 1 12 22Z" fill="inherit"/></svg>
